X: 1
T:Humours Of Scarriff, The
M:4/4
L:1/8
Q:250
R:Reel
K:C
e|:~d3e f2ed|cAGc (3ABc Gc|Adde fded|cAGE EDD2:|
!ecgc acgc|ecag eaag|e~c3 acgc|ed (3Bcd eddf|
!ecgc acgc|ecag egge|~a3g efed|cAGE EDD2||
